packages/radix-icons/twoTone/15/border-bottom.svg

<svg width="15" height="15" fill="none" xmlns="http://www.w3.org/2000/svg">
  <path
    fill-rule="evenodd"
    clip-rule="evenodd"
    d="M3 2C2.44772 2 2 2.44771 2 3V12C2 12.5523 2.44771 13 3 13H12C12.5523 13 13 12.5523 13 12V3C13 2.44772 12.5523 2 12 2H3Z"
    fill="currentColor"
    opacity=".2"
  />
  <path
    fill-rule="evenodd"
    clip-rule="evenodd"
    d="M3 2.9H12C12.0552 2.9 12.1 2.94477 12.1 3V11H2.9V3C2.9 2.94477 2.94477 2.9 3 2.9ZM2 3C2 2.44771 2.44772 2 3 2H12C12.5523 2 13 2.44772 13 3V12C13 12.5523 12.5523 13 12 13H3C2.44771 13 2 12.5523 2 12V3Z"
    fill="currentColor"
  />
</svg>

<svg width="15" height="15" fill="none" xmlns="http://www.w3.org/2000/svg">
  <path
    fill-rule="evenodd"
    clip-rule="evenodd"
    d="M3 2a1 1 0 00-1 1v9a1 1 0 001 1h9a1 1 0 001-1V3a1 1 0 00-1-1H3z"
    fill="currentColor"
    opacity=".2"
  />
  <path
    fill-rule="evenodd"
    clip-rule="evenodd"
    d="M3 2.9h9a.1.1 0 01.1.1v8H2.9V3a.1.1 0 01.1-.1zM2 3a1 1 0 011-1h9a1 1 0 011 1v9a1 1 0 01-1 1H3a1 1 0 01-1-1V3z"
    fill="currentColor"
  />
</svg>
